teeny/outline/markdown.svg

<svg width="15" height="15" viewBox="0 0 15 15" fill="none" xmlns="http://www.w3.org/2000/svg">
<path d="M2.5 5.5L2.85355 5.14645C2.71055 5.00345 2.4955 4.96067 2.30866 5.03806C2.12182 5.11545 2 5.29777 2 5.5H2.5ZM4.5 7.5L4.14645 7.85355L4.5 8.20711L4.85355 7.85355L4.5 7.5ZM6.5 5.5H7C7 5.29777 6.87818 5.11545 6.69134 5.03806C6.5045 4.96067 6.28945 5.00345 6.14645 5.14645L6.5 5.5ZM10.5 9.5L10.1464 9.85355L10.5 10.2071L10.8536 9.85355L10.5 9.5ZM1.5 3H13.5V2H1.5V3ZM14 3.5V11.5H15V3.5H14ZM13.5 12H1.5V13H13.5V12ZM1 11.5V3.5H0V11.5H1ZM1.5 12C1.22386 12 1 11.7761 1 11.5H0C0 12.3284 0.671574 13 1.5 13V12ZM14 11.5C14 11.7761 13.7761 12 13.5 12V13C14.3284 13 15 12.3284 15 11.5H14ZM13.5 3C13.7761 3 14 3.22386 14 3.5H15C15 2.67157 14.3284 2 13.5 2V3ZM1.5 2C0.671573 2 0 2.67157 0 3.5H1C1 3.22386 1.22386 3 1.5 3V2ZM3 10V5.5H2V10H3ZM2.14645 5.85355L4.14645 7.85355L4.85355 7.14645L2.85355 5.14645L2.14645 5.85355ZM4.85355 7.85355L6.85355 5.85355L6.14645 5.14645L4.14645 7.14645L4.85355 7.85355ZM6 5.5V10H7V5.5H6ZM10 5V9.5H11V5H10ZM8.14645 7.85355L10.1464 9.85355L10.8536 9.14645L8.85355 7.14645L8.14645 7.85355ZM10.8536 9.85355L12.8536 7.85355L12.1464 7.14645L10.1464 9.14645L10.8536 9.85355Z" fill="black"/>
</svg>

<svg viewBox="0 0 15 15" xmlns="http://www.w3.org/2000/svg"><path d="M2.5 5.5l.35-.36c-.15-.15-.36-.19-.55-.11 -.19.07-.31.25-.31.46h.5Zm2 2l-.36.35 .35.35 .35-.36 -.36-.36Zm2-2H7c0-.21-.13-.39-.31-.47 -.19-.08-.41-.04-.55.1l.35.35Zm4 4l-.36.35 .35.35 .35-.36 -.36-.36ZM1.5 3h12V2h-12v1Zm12.5.5v8h1v-8h-1Zm-.5 8.5h-12v1h12v-1ZM1 11.5v-8H0v8h1Zm.5.5c-.28 0-.5-.23-.5-.5H0c0 .82.67 1.5 1.5 1.5v-1Zm12.5-.5c0 .27-.23.5-.5.5v1c.82 0 1.5-.68 1.5-1.5h-1ZM13.5 3c.27 0 .5.22.5.5h1c0-.83-.68-1.5-1.5-1.5v1Zm-12-1C.67 2 0 2.67 0 3.5h1c0-.28.22-.5.5-.5V2ZM3 10V5.5H2V10h1Zm-.86-4.15l2 2 .7-.71 -2-2 -.71.7Zm2.7 2l2-2 -.71-.71 -2 2 .7.7Zm1.14-2.36v4.5h1v-4.5h-1Zm4-.5v4.5h1v-4.5h-1ZM8.12 7.84l1.99 2 .7-.71 -2.01-2 -.71.7Zm2.7 2l2-2 -.71-.71 -2 2 .7.7Z"/></svg>
